static/images/cs-devrev-red.svg

<svg width="46" height="71" viewBox="0 0 46 71" fill="none" xmlns="http://www.w3.org/2000/svg">
<path d="M11.131 51.1578C11.1654 51.6267 10.8611 52.2139 11.1545 52.6167C12.0193 53.4037 12.4537 54.9432 13.8051 54.8594C14.7048 55.6804 15.2307 57.3382 16.6223 57.2967C17.0032 57.7568 17.3891 58.223 17.7532 58.6629C18.076 58.7176 18.3694 58.7673 18.6626 58.8168C19.1664 59.3598 19.0805 59.6302 20.0675 59.759C20.5156 60.0168 20.7784 60.3904 21.361 60.3181C22.1854 60.9212 22.0724 61.4243 23.3463 61.3607C24.0422 61.2165 24.0753 61.8055 24.641 61.9189C25.1082 61.8351 25.3718 62.1233 25.634 62.4286C26.1988 62.5562 26.8952 62.4274 27.3982 62.693C27.7194 63.2286 28.2693 63.102 28.7445 63.1491C29.1543 63.1895 29.541 63.2197 29.7642 63.6288C30.996 64.1473 31.0014 64.1429 31.4275 64.683C32.3136 64.8466 33.2295 64.7627 34.0959 65.04C34.597 65.7556 35.3957 65.378 36.041 65.5631C36.6521 66.4964 38.0709 65.7206 38.6356 66.6679C39.8312 66.9811 41.471 66.4557 42.3722 67.3949C45.3967 68.3435 45.7534 65.5301 45.2085 69.4787C44.6824 70.1016 43.9077 69.652 43.2134 69.6909C42.4296 70.2195 41.5312 69.96 40.6267 69.8724C40.3183 69.8362 40.2269 69.445 39.9353 69.3874C39.3139 69.2202 37.5164 69.3731 37.3231 68.9282C37.047 68.5004 36.5611 68.7666 36.2418 68.5671C35.9399 68.1401 35.4697 68.0805 34.9577 67.9927C34.4981 67.0944 32.2536 67.7483 31.9096 67.1631C31.4057 66.5688 30.7976 67.1382 30.4019 66.3108C29.6465 66.2596 28.746 66.3699 28.2293 65.717C27.5005 65.7797 27.2718 65.2103 26.637 65.1165C26.2326 65.1041 25.8178 65.0936 25.4304 64.9944C25.1683 64.9274 25.0881 64.5229 24.7369 64.5107C24.4337 64.5003 24.1313 64.4617 23.8289 64.4288C23.1903 64.56 23.0993 63.9186 22.5335 63.8689C22.3457 63.8801 22.1526 63.7987 21.962 63.7592C21.7087 63.1915 21.0526 63.4649 20.6961 63.1602C20.3878 62.6661 19.7399 62.9287 19.4136 62.5833C19.1563 62.1632 18.7148 62.2929 18.3513 62.1799C17.9819 61.819 17.629 61.6102 17.0445 61.6408C15.9269 59.9184 15.7998 61.3928 14.5969 59.6856C12.9253 59.8507 12.7616 57.1817 11.1499 57.1999C9.90369 56.4 10.0477 55.2776 8.31052 54.7742C7.75979 54.5812 7.65227 53.611 6.94277 53.8361C6.64827 54.1941 6.26678 54.1999 5.85369 54.1262C5.54778 54.0331 5.37633 54.4684 5.08345 54.4768C3.33142 54.171 1.308 54.5478 -0.145952 53.5616C-0.701017 53.441 -1.45791 53.6745 -1.83859 53.1629C-2.11854 52.7034 -2.80808 53.116 -3.1211 52.5812C-4.23771 50.7828 -6.5877 49.3944 -6.74596 47.2408C-7.17812 46.5879 -8.03758 46.0938 -7.74317 45.1981C-8.019 44.7614 -8.17481 44.3609 -8.05118 43.8233C-8.52365 43.0052 -8.92905 43.0775 -8.74581 41.9852C-8.83187 41.7207 -9.19379 41.5834 -9.09661 41.2088C-9.04754 41.0199 -9.00322 40.7835 -9.07495 40.6207C-9.44637 40.2477 -9.40075 39.7667 -9.39747 39.2503C-9.75944 38.9529 -9.72922 38.5626 -9.6674 38.1568C-10.3359 36.9285 -9.69775 35.43 -9.70625 34.0591C-9.67474 33.6779 -9.51566 33.2794 -9.86869 32.9315C-10.1882 32.3423 -9.66889 30.2471 -9.6829 29.3501C-10.023 29.0614 -10.1726 28.7196 -10.0075 28.2852C-9.89471 27.849 -10.4807 27.6796 -10.3596 27.2069C-9.93913 23.4989 -9.65459 19.7397 -9.27135 16.0221C-8.18711 15.2029 -9.13642 13.4088 -8.07921 12.5167C-7.8063 11.5515 -8.26986 10.2714 -7.32838 9.64431C-7.12094 8.69289 -7.5406 7.27844 -6.55475 6.63839C-6.15825 6.37148 -6.17999 6.33806 -6.14184 5.90793C-6.15674 5.01799 -5.92994 4.35105 -5.13356 3.89747C-5.08934 3.60308 -5.04489 3.30851 -4.99961 3.00533C-3.91169 2.10484 -2.81858 1.20004 -1.72078 0.291368C-1.43059 0.306593 -1.13179 0.322181 -0.832961 0.33777C-0.387933 -0.216422 0.249222 0.0762029 0.897192 0.0886619C1.14262 0.478595 2.02147 1.0263 1.52486 1.53303C0.359264 2.51166 -0.803838 3.49376 -1.99519 4.44033C-2.41545 4.77436 -2.71156 5.12184 -2.66333 5.68172C-3.00209 6.07205 -3.25365 6.42063 -3.22665 6.97594C-3.26687 7.15157 -3.55677 7.25552 -3.62982 7.39387C-3.71133 7.90576 -3.69147 8.40212 -4.22947 8.66912C-4.26999 8.96559 -4.31053 9.26208 -4.35105 9.55855C-5.21415 10.1342 -4.77065 11.4744 -5.04215 12.3752C-6.27708 13.7022 -5.18248 16.0724 -6.25309 17.4576C-6.51807 17.9145 -6.64528 18.6932 -6.29303 19.1283C-6.0156 19.4601 -6.04266 19.5865 -6.35308 19.8889C-7.22066 21.756 -6.83968 24.3152 -7.23386 26.4136C-6.57566 27.5322 -7.15315 28.9401 -7.17553 30.2081C-7.22581 30.5522 -6.88081 30.7055 -6.82505 30.9808C-6.78669 31.1708 -6.8667 31.3818 -6.86891 31.5837C-6.87315 31.9743 -7.05503 32.3668 -6.8641 32.7556C-6.33544 33.2357 -6.91687 33.9178 -6.33878 34.3546C-6.21303 35.5418 -6.69422 36.7519 -6.5297 37.9371C-6.16263 38.2402 -6.2405 38.6395 -6.28272 39.0374C-6.28202 39.3334 -5.88859 39.5059 -5.93062 39.8068C-5.92244 40.5813 -5.93705 40.5938 -5.46201 41.127C-4.9134 41.9623 -5.58258 43.097 -5.42791 44.0456C-4.74364 45.1545 -3.58432 45.5404 -3.5924 47.012C-3.14679 48.0745 -2.07802 48.8924 -1.40797 49.86C-1.16552 50.1543 -1.16685 50.1546 -0.179641 50.5391C0.602694 50.9247 1.05933 52.7498 2.05569 51.6084C3.16538 51.7116 4.27511 51.8143 5.38461 51.9172C7.20918 50.8 3.48056 49.5445 4.08269 48.0442C4.35779 47.038 3.85211 46.5986 3.26137 45.9543C2.78487 45.4658 3.34955 44.7616 2.73508 44.3517C2.78683 43.8317 2.86672 43.3551 2.40735 42.9999C2.45027 42.1851 2.7259 41.3769 2.19513 40.7017C2.39769 38.5883 2.60001 36.4751 2.79913 34.3954C3.36003 33.8734 3.72364 33.8912 3.7972 32.9668C3.84563 32.642 4.19918 32.5454 4.28997 32.2738C4.37027 30.8444 6.17959 30.2823 7.06217 29.2837C7.208 29.1614 7.24953 28.9586 7.22921 28.7386C7.34085 27.8712 8.48829 27.4398 9.06851 26.8563C10.2808 26.9829 10.9263 26.0374 11.8347 25.3393C12.1331 25.3481 12.4315 25.357 12.7543 25.3666C13.2217 25.0172 13.6088 24.4011 14.2719 24.6604C14.9904 24.7758 15.3875 23.355 16.0311 24.1211C16.3518 24.6575 16.9441 24.2463 17.3216 24.6961C17.6858 25.1807 18.067 25.6575 18.4847 26.0955C18.9258 26.671 18.3404 27.1888 18.9965 27.7089C19.0893 29.2338 18.1354 31.1289 18.9742 32.4542C18.8623 33.6235 18.7348 34.8297 18.6382 36.0382C17.8614 37.0745 17.9661 38.4591 17.8603 39.7527C17.8884 40.2379 17.3212 40.3072 17.306 40.7464C17.2889 41.2461 17.1969 41.7434 17.137 42.2417C16.64 42.4997 16.6786 43.0288 16.5465 43.5193C15.8825 43.8368 16.3414 44.6676 15.7219 44.9914C15.2302 45.2683 15.0571 45.6916 15.0543 46.2296C14.9675 46.5047 14.6108 46.5983 14.5607 46.922C14.5179 48.3085 12.8207 48.195 13.0111 49.5993C12.3865 50.1186 11.761 50.6363 11.131 51.1578ZM5.51014 37.6774C5.53955 38.4 5.12784 39.3303 5.45888 39.9961C5.90072 40.5275 5.48464 41.3768 5.52963 42.0272C5.51566 42.4084 5.3287 42.8087 5.68795 43.1527C6.03976 43.5676 5.51528 44.1298 6.02374 44.5132C6.69652 44.959 6.53364 46.3571 6.94309 46.5705C7.45775 47.4549 8.76763 48.1669 8.71957 49.2414C8.64556 49.5142 8.68648 49.6369 8.90173 49.6541C9.65019 49.4995 10.1708 48.6629 10.8234 48.2604C11.2149 47.926 10.8627 47.2619 11.4065 46.9775C12.2502 46.6808 11.8295 45.7614 12.4628 45.3135C12.5289 45.2746 12.5597 45.1527 12.5791 45.0631C12.561 44.035 13.647 44.0253 13.6283 43.0824C13.5537 42.6953 13.933 42.6025 14.102 42.3803C14.2926 41.6251 14.0613 40.6941 14.7764 40.1951C14.8152 39.7925 14.9032 39.3867 14.879 38.9881C14.8506 38.5173 15.369 38.3646 15.408 37.9954C15.4941 35.3265 16.4314 32.5207 15.7399 29.9783C15.7654 29.1395 16.2844 28.0318 15.5907 27.3949C14.8898 27.3199 14.1888 27.2454 13.4986 27.1718C12.9739 27.4875 12.5523 27.9266 12.0702 28.2995C11.7726 28.2917 11.4752 28.2836 11.1471 28.2748C10.6977 28.6468 10.2237 29.0391 9.77094 29.4139C9.73089 29.71 9.69087 30.006 9.64881 30.3141C8.87741 30.9526 8.09919 31.5967 7.32732 32.2356C7.34492 32.8121 7.19122 33.175 6.77697 33.5412C6.70832 33.9211 6.75649 34.3075 6.37946 34.6108C5.72895 35.4577 6.54891 37.0323 5.51014 37.6774Z" fill="#FC6B7E"/>
</svg>

<svg xmlns="http://www.w3.org/2000/svg" width="46" height="71" fill="none" viewBox="0 0 46 71"><path fill="#fc6b7e" d="M11.1 51.2v1.4c1 .8 1.4 2.3 2.7 2.3.9.8 1.4 2.4 2.8 2.4l1.2 1.4.9.1c.5.6.4.8 1.4 1q.5.5 1.3.5c.8.6.7 1.1 2 1 .6 0 .7.5 1.2.6q.7 0 1 .5c.6.2 1.3 0 1.8.3q.6.6 1.3.4.7 0 1 .5c1.3.5 1.3.5 1.7 1l2.7.4c.5.8 1.3.4 2 .6.6.9 2 .1 2.5 1 1.2.4 2.9-.1 3.8.8 3 1 3.4-1.9 2.8 2-.5.7-1.3.3-2 .3-.8.5-1.7.3-2.6.2-.3 0-.4-.5-.7-.5-.6-.2-2.4 0-2.6-.5s-.7-.1-1-.3q-.6-.6-1.3-.6c-.5-1-2.7-.3-3-.8-.6-.6-1.2 0-1.6-.9q-1.3.2-2.2-.6c-.7 0-1-.5-1.6-.6l-1.2-.1c-.2 0-.3-.5-.7-.5h-.9c-.6 0-.7-.6-1.3-.6l-.5-.1c-.3-.6-1-.3-1.3-.6-.3-.5-1-.3-1.3-.6q-.4-.4-1-.4-.6-.6-1.4-.6c-1-1.7-1.2-.2-2.4-2-1.7.3-1.8-2.4-3.5-2.4-1.2-.8-1-2-2.8-2.4-.5-.2-.6-1.2-1.4-1q-.4.5-1 .3l-.8.4c-1.8-.3-3.8 0-5.2-1-.6 0-1.4.2-1.7-.3s-1 0-1.3-.6c-1.1-1.8-3.5-3.2-3.6-5.4-.5-.6-1.3-1.1-1-2q-.5-.5-.4-1.4c-.4-.8-.8-.7-.6-1.8-.1-.3-.5-.4-.4-.8v-.6q-.4-.6-.3-1.3-.4-.5-.3-1.1c-.6-1.3 0-2.8 0-4.1q.2-.6-.2-1.2c-.3-.6.2-2.7.2-3.5q-.5-.5-.3-1.1c.1-.5-.5-.6-.4-1L-9.3 16c1.1-.8.2-2.6 1.2-3.5.3-1-.2-2.2.8-2.9.2-1-.2-2.3.7-3q.5-.2.5-.7-.1-1.3 1-2L-5 3-1.7.3h.9C-.4-.2.2.1.9.1c.2.4 1.1 1 .6 1.4l-3.5 3q-.7.4-.7 1.2-.6.5-.5 1.3l-.4.4c-.1.5 0 1-.6 1.3l-.2.9c-.8.5-.4 1.9-.6 2.8-1.3 1.3-.2 3.7-1.3 5q-.4 1 0 1.7.5.5 0 .8c-1 1.9-.5 4.4-1 6.5.7 1.1.1 2.5.1 3.8q.1.5.4.8v.6c0 .4-.3.8 0 1.2.5.4-.1 1.1.5 1.6 0 1.1-.4 2.4-.2 3.5q.4.5.2 1.1l.4.8c0 .8 0 .8.4 1.3.6.9 0 2 0 3 .8 1 2 1.4 2 3 .4 1 1.4 1.8 2 2.8.3.3.3.3 1.3.6.8.4 1.3 2.2 2.3 1.1l3.3.3c1.8-1.1-2-2.4-1.3-3.9q.3-1.3-.8-2c-.5-.5 0-1.2-.6-1.6 0-.6.2-1-.3-1.4 0-.8.3-1.6-.2-2.3l.6-6.3c.6-.5 1-.5 1-1.4q.2-.5.5-.7c0-1.5 1.9-2 2.8-3l.1-.6c.1-.8 1.3-1.3 1.9-1.8 1.2 0 1.8-.9 2.7-1.6h1c.4-.3.8-.9 1.5-.6.7 0 1-1.3 1.7-.6.4.6 1 .1 1.3.6l1.2 1.4c.4.6-.2 1 .5 1.6 0 1.5-.9 3.4 0 4.8l-.4 3.5c-.7 1-.6 2.5-.7 3.8 0 .4-.6.5-.6 1l-.2 1.4c-.5.3-.4.8-.6 1.3-.6.3-.2 1.2-.8 1.5q-.7.5-.6 1.2l-.5.7c0 1.4-1.8 1.3-1.6 2.7zM5.5 37.7c0 .7-.4 1.6 0 2.3.4.5 0 1.4 0 2q-.2.6.2 1.2c.3.4-.2 1 .3 1.3.7.5.5 1.9 1 2 .5 1 1.8 1.7 1.7 2.7q0 .4.2.5c.8-.2 1.3-1 2-1.4.3-.4 0-1 .5-1.3.9-.3.4-1.2 1-1.7l.2-.2c0-1 1-1 1-2q.1-.5.5-.7c.2-.8 0-1.7.7-2.2V39c0-.5.6-.6.6-1 0-2.7 1-5.5.3-8 0-.9.6-2-.1-2.6l-2.1-.2-1.4 1.1h-1l-1.3 1.1-.2 1-2.3 1.8q0 .9-.5 1.3.1.6-.4 1.1c-.7.9.1 2.4-.9 3"/></svg>
